svg/cards_playing_diamond_multiple_outline.svg

<svg xmlns="http://www.w3.org/2000/svg" viewBox="0 0 24 24"><path d="M19 0H9C7.9 0 7 .9 7 2v16c0 1.1.9 2 2 2h10c1.1 0 2-.9 2-2V2c0-1.1-.9-2-2-2m0 18H9V2h10zM3 4v18c0 1.1.9 2 2 2h12v-2H5V4zm11 1-3 5 3 5 3-5z"/></svg>

<svg xmlns="http://www.w3.org/2000/svg" id="mdi-cards-playing-diamond-multiple-outline" viewBox="0 0 24 24"><path d="M19 0H9C7.9 0 7 .9 7 2V18C7 19.1 7.9 20 9 20H19C20.1 20 21 19.1 21 18V2C21 .9 20.1 0 19 0M19 18H9V2H19V18M3 4V22C3 23.1 3.9 24 5 24H17V22H5V4H3M14 5L11 10L14 15L17 10L14 5Z" /></svg>
